X:1
T:Constant Billy
O:Stanton Harcourt
R:jig
M:6/8
L:1/8
K:Bb
P:A
F|B2f d>Bd|e2c c>Bc|d>cB G>AB|FGA B2:|
P:B
F|d>ef g>ab|c>de fdB|d>ef g>ab|c>de f3|
B2f d>Bd|e2c c>Bc|d>cB G>AB|FGA B2|]
